**kern
*staff1
!!pagebreak:original
*I"P1
*clefG2
*k[b-]
*M3/8
8g/
=1
8ee\
8r
8ee\
=2
8ff\
8r
16.aa\LL
32ff\JJk
=3
8dd\
8r
8dd\
=4
8ee\
8r
16.gg\LL
32ee\JJk
=5
8cc\L
8cc\
8cc\J
=6
8cc\L
8bn\
8cc\J
=7
8dd\L
[8ff\J
32ff\LLL]
32ee\
32dd\
32ee\JJJ
=8
8dd\
=
*-
